src/pos-icons/tea.svg

<svg height="24" viewBox="0 0 24 24" width="24" xmlns="http://www.w3.org/2000/svg"><path d="m4 19h16v2h-16zm16-11v-3h-2v3zm0-5c.6 0 1 .2 1.4.6s.6.9.6 1.4v3c0 .6-.2 1-.6 1.4s-.8.6-1.4.6h-2v3c0 1.1-.4 2-1.2 2.8s-1.7 1.2-2.8 1.2h-6c-1.1 0-2-.4-2.8-1.2s-1.2-1.7-1.2-2.8v-10h5v2.4l-1.8 1.4c-.1.1-.2.3-.2.4v4.3c0 .3.2.5.5.5h4c.3 0 .5-.2.5-.5v-4.3c0-.2-.1-.3-.2-.4l-1.8-1.4v-2.4z"/></svg>

<?xml version="1.0" encoding="UTF-8"?><!DOCTYPE svg PUBLIC "-//W3C//DTD SVG 1.1//EN" "http://www.w3.org/Graphics/SVG/1.1/DTD/svg11.dtd"><svg xmlns="http://www.w3.org/2000/svg" xmlns:xlink="http://www.w3.org/1999/xlink" version="1.1" id="mdi-tea" width="24" height="24" viewBox="0 0 24 24"><path d="M4,19H20V21H4V19M20,8V5H18V8H20M20,3C20.6,3 21,3.2 21.4,3.6C21.8,4 22,4.5 22,5V8C22,8.6 21.8,9 21.4,9.4C21,9.8 20.6,10 20,10H18V13C18,14.1 17.6,15 16.8,15.8C16,16.6 15.1,17 14,17H8C6.9,17 6,16.6 5.2,15.8C4.4,15 4,14.1 4,13V3H9V5.4L7.2,6.8C7.1,6.9 7,7.1 7,7.2V11.5C7,11.8 7.2,12 7.5,12H11.5C11.8,12 12,11.8 12,11.5V7.2C12,7 11.9,6.9 11.8,6.8L10,5.4V3H20Z" /></svg>
